X:41
T:Fairies' Revel, The
R:march
D:Leo Rowsome: Classics of Irish Piping
Z:id:hn-march-41
M:2/4
L:1/8
K:G
D | GG AB/c/ | d/e/d/c/ AB/c/ |1 dc/A/ GG/E/ | F3 :|2 d/B/c/A/ GG | G3 ||
B/c/ | dg dc/B/ | cd cD/E/ | F/G/A/B/ c/B/A/G/ | F3 d/c/ |
BA/B/ cB/c/ | d/e/d/c/ AB/c/ | d/B/c/A/ GG | G3 ||
P:variation of 1st part
|: D | GG AB/c/ | d/e/d/c/ AB/c/ |1 d/Bc/A/ GE/G/ | F3 :|2 d/B/c/A/ GG | G3 ||

